Adwaita++-Light/panel/16/pomodoneapp-started.svg

<svg height="16" width="16" xmlns="http://www.w3.org/2000/svg">
  <path d="m8 1a7 7 0 0 0 -7 7 7 7 0 0 0 7 7 7 7 0 0 0 7-7 7 7 0 0 0 -7-7zm-2.5 3h5c.831 0 1.5.669 1.5 1.5v5c0 .831-.669 1.5-1.5 1.5h-5c-.831 0-1.5-.669-1.5-1.5v-5c0-.831.669-1.5 1.5-1.5zm2 1c-.277 0-.5.223-.5.5v2 1c0 .277.223.5.5.5h3c.277 0 .5-.223.5-.5v-1c0-.277-.223-.5-.5-.5h-1.5v-1.5c0-.277-.223-.5-.5-.5z" fill="#444"/>
</svg>

<svg xmlns="http://www.w3.org/2000/svg" width="16" height="16" version="1.1">
 <defs>
  <style id="current-color-scheme" type="text/css">
   .ColorScheme-Text { color:#444444; } .ColorScheme-Highlight { color:#4285f4; }
  </style>
 </defs>
 <path style="fill:currentColor" class="ColorScheme-Text" d="M 8,1 A 7,7 0 0 0 1,8 7,7 0 0 0 8,15 7,7 0 0 0 15,8 7,7 0 0 0 8,1 Z M 5.5,4 H 10.5 C 11.331,4 12,4.669 12,5.5 V 10.5 C 12,11.331 11.331,12 10.5,12 H 5.5 C 4.669,12 4,11.331 4,10.5 V 5.5 C 4,4.669 4.669,4 5.5,4 Z M 7.5,5 C 7.223,5 7,5.223 7,5.5 V 7.5 8.5 C 7,8.777 7.223,9 7.5,9 H 10.5 C 10.777,9 11,8.777 11,8.5 V 7.5 C 11,7.223 10.777,7 10.5,7 H 9 V 5.5 C 9,5.223 8.777,5 8.5,5 Z"/>
</svg>
